X:25
T:Oj chyj to kin stoit
% Bb harp
Q:1/4=120
L:1/4
M:3/4
K:Cmaj
E A B | c2 B | A3 | E A B |
c2 B | A3 |: A [df] [df] | [d2f2][ce] [Bd] |
c [ce] [ce] | [c2e2] [Bd] [Ac] | [^GB] [Ac] [Bd] |
[^G2e2] [Bd] | A3- | A3 :|

